Modules/BetterCms.Module.Root/Scss/base_64/icons/cp-indicate-off.svg

<svg xmlns="http://www.w3.org/2000/svg" preserveAspectRatio="xMidYMid" width="16" height="7" viewBox="0 0 16 7">
  <path fill="#c6c6c6" fill-rule="evenodd" d="M16.000,3.000 L16.000,4.000 L13.000,4.000 L13.000,7.000 L12.000,7.000 L12.000,4.000 L12.000,3.000 L12.000,1.000 L12.000,0.000 L13.000,0.000 L16.000,0.000 L16.000,1.000 L13.000,1.000 L13.000,3.000 L16.000,3.000 ZM8.000,7.000 L7.000,7.000 L7.000,4.000 L7.000,3.000 L7.000,1.000 L7.000,0.000 L8.000,0.000 L11.000,0.000 L11.000,1.000 L8.000,1.000 L8.000,3.000 L11.000,3.000 L11.000,4.000 L8.000,4.000 L8.000,7.000 ZM5.000,1.000 L6.000,1.000 L6.000,6.000 L5.000,6.000 L5.000,1.000 ZM5.000,7.000 L1.000,7.000 L1.000,6.000 L5.000,6.000 L5.000,7.000 ZM-0.000,6.000 L-0.000,1.000 L1.000,1.000 L1.000,6.000 L-0.000,6.000 ZM1.000,0.000 L5.000,0.000 L5.000,1.000 L1.000,1.000 L1.000,0.000 Z"/>
</svg>

<svg xmlns="http://www.w3.org/2000/svg" width="16" height="7" viewBox="0 0 16 7">
 <path fill="#c6c6c6" fill-rule="evenodd" d="m16 3v1h-3v3h-1v-3-1-2-1h1 3v1h-3v2h3m-8 4h-1v-3-1-2-1h1 3v1h-3v2h3v1h-3v3m-3-6h1v5h-1v-5m0 6h-4v-1h4v1m-5-1v-5h1v5h-1m1-6h4v1h-4v-1"/>
</svg>
